src/assets/images/header/search-icon.svg

<svg width="12" height="12" viewBox="0 0 12 12" fill="none" xmlns="http://www.w3.org/2000/svg">
<path d="M1.509 1.50905C2.48213 0.535922 3.77595 0 5.15213 0C6.52831 0 7.82213 0.535922 8.79523 1.50905C9.76833 2.48215 10.3043 3.77597 10.3043 5.15213C10.3043 6.41032 9.85606 7.59949 9.03556 8.53786L11.8969 11.3992C12.0343 11.5366 12.0343 11.7595 11.8969 11.8969C11.8282 11.9656 11.7381 12 11.648 12C11.558 12 11.4679 11.9656 11.3992 11.8969L8.53786 9.03558C7.59949 9.85606 6.41032 10.3043 5.15213 10.3043C3.77592 10.3043 2.48215 9.76838 1.50902 8.79525C0.535922 7.82215 9.53674e-07 6.52833 9.53674e-07 5.15215C9.53674e-07 3.77597 0.535899 2.48215 1.509 1.50905ZM2.00672 8.29755C3.74112 10.0319 6.56311 10.0319 8.29751 8.29755C10.0319 6.56318 10.0319 3.74114 8.29751 2.00677C7.43023 1.13948 6.29135 0.705984 5.1521 0.705984C4.01313 0.705984 2.87379 1.1397 2.0067 2.00677C0.272367 3.74112 0.272367 6.56316 2.00672 8.29755Z" fill="#939393"/>
</svg>

<svg width="12" height="12" fill="none" xmlns="http://www.w3.org/2000/svg"><path d="M1.509 1.509A5.118 5.118 0 015.152 0c1.376 0 2.67.536 3.643 1.509a5.118 5.118 0 011.51 3.643 5.114 5.114 0 01-1.27 3.386l2.862 2.861a.352.352 0 01-.498.498L8.538 9.036a5.114 5.114 0 01-3.386 1.268A5.118 5.118 0 011.51 8.795 5.118 5.118 0 010 5.152c0-1.376.536-2.67 1.509-3.643zm.498 6.789a4.453 4.453 0 006.29 0 4.453 4.453 0 000-6.291A4.434 4.434 0 005.153.706a4.435 4.435 0 00-3.145 1.3 4.453 4.453 0 000 6.292z" fill="#939393"/></svg>
